X:1
T:[ID 6-32]
T:[ID 6-32]
T:Bezeichnung standardisiert: Menuett Menuet 32.
T:Urheber unbekannt Datum in der hier transkribierten schriftlichen Quelle: 1775
C:Urheber unbekannt
C:Datum in der hier transkribierten schriftlichen Quelle: 1775
L:1/8
M:3/4
K:D
V:1 treble 
V:1
 D4 (3FED | F2 D2 F2 | F2 dFec | f6 | e2 gece | d2 fdBG | F2 E2 D2 | C6 :: A4 (3cBA | c2 A2 E2 | %10
 Cf e2 d2 | c6 | F2 dFdf | ff f4 | cedeGE | F6 :| %16

